src/assets/pyth.svg

<svg width="150" height="55" viewBox="0 0 150 55" fill="none" xmlns="http://www.w3.org/2000/svg">
<path d="M5.55213 54.5054C5.08945 54.5054 4.81185 54.1352 4.81185 53.7651V16.8435C4.71931 15.2704 4.90438 9.5332 9.34608 4.90643C10.7341 3.42587 14.6206 0.0945924 20.5429 0.00205709C26.2801 -0.0904783 30.2591 2.96319 31.6471 4.25868C33.1277 5.64671 36.5515 9.44066 36.7365 15.4555C36.9216 21.5628 33.4978 25.5418 32.1098 27.0224C28.0382 31.1865 23.0413 31.6491 21.0981 31.7417C20.7279 31.7417 20.3578 31.3715 20.3578 31.0014C20.3578 30.5387 20.6354 30.2611 21.0981 30.2611C22.8562 30.2611 27.3905 29.7059 31.0919 26.0045C32.1098 24.9866 35.441 21.1927 35.3485 15.548C35.256 9.99588 31.8322 6.387 30.7217 5.46164C29.7039 4.53629 26.1875 1.66769 20.913 1.66769C20.8205 1.66769 20.7279 1.66769 20.6354 1.66769C15.2683 1.76023 11.752 4.8139 10.4565 6.10939C6.38495 10.1809 6.29241 15.3629 6.29241 16.8435V53.7651C6.29241 54.2278 6.01481 54.5054 5.55213 54.5054Z" fill="#8246FA"/>
<path d="M20.6356 21.3777C17.6745 21.3777 15.2686 18.9718 15.2686 16.0107C15.2686 13.0495 17.6745 10.6436 20.6356 10.6436C23.5967 10.6436 26.0027 13.0495 26.0027 16.0107C26.0027 18.9718 23.5967 21.3777 20.6356 21.3777ZM20.6356 12.0316C18.5073 12.0316 16.7491 13.7898 16.7491 15.9181C16.7491 18.0464 18.5073 19.8046 20.6356 19.8046C22.7639 19.8046 24.5221 18.0464 24.5221 15.9181C24.5221 13.7898 22.7639 12.0316 20.6356 12.0316Z" fill="#8246FA"/>
<path d="M10.5494 41.5504C10.0867 41.5504 9.80908 41.1803 9.80908 40.8102V16.8435C9.80908 16.3808 10.1792 16.1032 10.5494 16.1032C10.9195 16.1032 11.2896 16.4734 11.2896 16.8435V40.8102C11.2896 41.1803 10.9195 41.5504 10.5494 41.5504Z" fill="#8246FA"/>
<path d="M15.9161 49.0458C15.4534 49.0458 15.1758 48.6756 15.1758 48.3055V35.5356C15.1758 35.0729 15.5459 34.7953 15.9161 34.7953C16.2862 34.7953 16.6563 35.1655 16.6563 35.5356V48.3055C16.7489 48.6756 16.3787 49.0458 15.9161 49.0458Z" fill="#8246FA"/>
<path d="M0.740283 43.031C0.277606 43.031 0 42.6608 0 42.2907V26.0045C0 25.5418 0.370141 25.2642 0.740283 25.2642C1.11042 25.2642 1.48057 25.6343 1.48057 26.0045V42.2907C1.48057 42.7534 1.20296 43.031 0.740283 43.031Z" fill="#8246FA"/>
<path d="M20.6357 26.7448C14.6209 26.7448 9.80908 21.8404 9.80908 15.9181C9.80908 9.99587 14.6209 5.09149 20.6357 5.09149C26.6505 5.09149 31.4624 9.99587 31.4624 15.9181C31.4624 21.8404 26.558 26.7448 20.6357 26.7448ZM20.6357 6.57206C15.4537 6.57206 11.2896 10.7361 11.2896 15.9181C11.2896 21.1001 15.4537 25.2642 20.6357 25.2642C25.8177 25.2642 29.9818 21.1001 29.9818 15.9181C29.9818 10.7361 25.7252 6.57206 20.6357 6.57206Z" fill="#8246FA"/>
<path d="M98.2731 14.9003H95.1269C94.9418 14.9003 94.8493 14.9928 94.7567 15.0853L89.1121 22.3956C88.7419 22.8583 88.4643 23.321 88.1867 23.6911C88.0016 23.321 87.6315 22.8583 87.2614 22.3956L81.5242 15.0853C81.4316 14.9928 81.3391 14.9003 81.154 14.9003H78.1004C77.9153 14.9003 77.7302 14.9928 77.7302 15.1779C77.6377 15.3629 77.6377 15.548 77.8228 15.6406L86.4285 26.9299V37.0162C86.4285 37.2938 86.6136 37.4789 86.8912 37.4789H89.5747C89.8524 37.4789 90.0374 37.2938 90.0374 37.0162V26.8373L98.6432 15.548C98.7357 15.3629 98.7357 15.1779 98.7357 15.0853C98.6432 15.0853 98.4581 14.9003 98.2731 14.9003Z" fill="white"/>
<path d="M123.258 14.9003H104.473C104.195 14.9003 104.01 15.0853 104.01 15.3629V17.6763C104.01 17.9539 104.195 18.139 104.473 18.139H112.061V37.0162C112.061 37.2938 112.246 37.4789 112.524 37.4789H115.207C115.485 37.4789 115.67 37.2938 115.67 37.0162V18.2315H123.258C123.535 18.2315 123.72 18.0465 123.72 17.7689V15.4555C123.72 15.1779 123.535 14.9003 123.258 14.9003Z" fill="white"/>
<path d="M62.2767 14.9003H53.3933C53.1157 14.9003 52.9307 15.0853 52.9307 15.3629V37.0162C52.9307 37.2938 53.1157 37.4789 53.3933 37.4789H56.0769C56.3545 37.4789 56.5395 37.2938 56.5395 37.0162V33.3148V32.0193V28.7806V28.2254V18.0465H62.5543C65.8856 18.0465 68.2915 20.2673 68.2915 23.4135C68.2915 26.5597 65.8856 28.7806 62.4618 28.7806H61.5365C61.5365 28.7806 61.2588 28.7806 61.1663 28.9656C61.0738 29.0582 61.0738 29.2432 61.0738 29.2432C61.0738 29.9835 61.0738 30.8163 61.0738 31.5566C61.0738 31.5566 61.0738 31.7417 61.1663 31.9268C61.2588 32.0193 61.4439 32.0193 61.5365 32.0193C61.7215 32.0193 61.9991 32.0193 62.1842 32.0193C62.6469 32.0193 67.2736 32.2969 70.0497 28.7806C71.8079 26.5597 71.9004 23.9687 71.9004 23.4135C72.0855 18.4166 68.1065 14.9003 62.2767 14.9003Z" fill="white"/>
<path d="M134.732 23.8762V15.3629C134.732 15.0853 134.547 14.9003 134.269 14.9003H131.586C131.308 14.9003 131.123 15.0853 131.123 15.3629V37.0162C131.123 37.2938 131.308 37.4789 131.586 37.4789H134.269C134.547 37.4789 134.732 37.2938 134.732 37.0162V27.1149" fill="white"/>
<path d="M149.538 14.9003H146.854C146.576 14.9003 146.391 15.0853 146.391 15.3629V23.8762H139.081C138.896 23.8762 138.711 24.0613 138.711 24.2463V26.7448C138.711 26.9299 138.896 27.1149 139.081 27.1149H146.391V37.1088C146.391 37.3864 146.576 37.5714 146.854 37.5714H149.538C149.815 37.5714 150 37.3864 150 37.1088V15.3629C150 15.1779 149.815 14.9003 149.538 14.9003Z" fill="white"/>
</svg>

<svg xmlns="http://www.w3.org/2000/svg" width="150" height="55" fill="none" xmlns:v="https://vecta.io/nano"><g fill="#8246fa"><path d="M5.552 54.505a.73.73 0 0 1-.74-.74V16.844c-.093-1.573.093-7.31 4.534-11.937C10.734 3.426 14.621.095 20.543.002c5.737-.093 9.716 2.961 11.104 4.257 1.481 1.388 4.904 5.182 5.089 11.197.185 6.107-3.239 10.086-4.627 11.567-4.072 4.164-9.068 4.627-11.012 4.719a.8.8 0 0 1-.74-.74c0-.463.278-.74.74-.74 1.758 0 6.292-.555 9.994-4.257 1.018-1.018 4.349-4.812 4.257-10.456-.093-5.552-3.516-9.161-4.627-10.086-1.018-.925-4.534-3.794-9.809-3.794h-.278c-5.367.093-8.883 3.146-10.179 4.442-4.072 4.072-4.164 9.254-4.164 10.734v36.922c0 .463-.278.74-.74.74zm15.084-33.127c-2.961 0-5.367-2.406-5.367-5.367s2.406-5.367 5.367-5.367 5.367 2.406 5.367 5.367-2.406 5.367-5.367 5.367zm0-9.346c-2.128 0-3.887 1.758-3.887 3.887s1.758 3.887 3.887 3.887a3.91 3.91 0 0 0 3.886-3.886c0-2.128-1.758-3.887-3.886-3.887zM10.549 41.55a.73.73 0 0 1-.74-.74V16.844a.73.73 0 0 1 .74-.74.8.8 0 0 1 .74.74V40.81a.8.8 0 0 1-.74.74zm5.367 7.496a.73.73 0 0 1-.74-.74v-12.77a.73.73 0 0 1 .74-.74.8.8 0 0 1 .74.74v12.77c.093.37-.278.74-.74.74z"/><path d="M.74 43.031a.73.73 0 0 1-.74-.74V26.005a.73.73 0 0 1 .74-.74.8.8 0 0 1 .74.74v16.286c0 .463-.278.74-.74.74zm19.896-16.286c-6.015 0-10.827-4.904-10.827-10.827S14.621 5.091 20.636 5.091s10.827 4.904 10.827 10.827-4.904 10.827-10.827 10.827zm0-20.173a9.32 9.32 0 0 0-9.346 9.346 9.32 9.32 0 0 0 9.346 9.346 9.32 9.32 0 0 0 9.346-9.346c0-5.182-4.257-9.346-9.346-9.346z"/></g><path d="M98.273 14.9h-3.146c-.185 0-.278.093-.37.185l-5.645 7.31c-.37.463-.648.925-.925 1.295-.185-.37-.555-.833-.925-1.295l-5.737-7.31c-.093-.092-.185-.185-.37-.185H78.1c-.185 0-.37.093-.37.278-.093.185-.093.37.093.463l8.606 11.289v10.086c0 .278.185.463.463.463h2.684c.278 0 .463-.185.463-.463V26.837l8.606-11.289c.093-.185.093-.37.093-.463-.093 0-.278-.185-.463-.185zm24.985 0h-18.785c-.278 0-.463.185-.463.463v2.313c0 .278.185.463.463.463h7.588v18.877c0 .278.185.463.463.463h2.683c.278 0 .463-.185.463-.463V18.232h7.588c.277 0 .462-.185.462-.463v-2.313c0-.278-.185-.555-.462-.555zm-60.981 0h-8.883c-.278 0-.463.185-.463.463v21.653c0 .278.185.463.463.463h2.684c.278 0 .463-.185.463-.463v-3.701-1.295-3.239-.555-10.179h6.015c3.331 0 5.737 2.221 5.737 5.367s-2.406 5.367-5.83 5.367h-.925s-.278 0-.37.185c-.093.093-.093.278-.093.278v2.313a.92.92 0 0 0 .093.37c.093.093.278.093.37.093h.648c.463 0 5.089.278 7.866-3.239 1.758-2.221 1.851-4.812 1.851-5.367.185-4.997-3.794-8.513-9.624-8.513zm72.455 8.976v-8.513c0-.278-.185-.463-.463-.463h-2.683c-.278 0-.463.185-.463.463v21.653c0 .278.185.463.463.463h2.683c.278 0 .463-.185.463-.463v-9.901M149.538 14.9h-2.684c-.278 0-.463.185-.463.463v8.513h-7.31a.4.4 0 0 0-.37.37v2.499a.4.4 0 0 0 .37.37h7.31v9.994c0 .278.185.463.463.463h2.684c.277 0 .462-.185.462-.463V15.363c0-.185-.185-.463-.462-.463z" fill="#fff"/></svg>
